package/converter/svg/duotone/messages.svg

<svg xmlns="http://www.w3.org/2000/svg" viewBox="0 0 640 512"><!-- Font Awesome Pro 6.0.0-alpha2 by @fontawesome - https://fontawesome.com License - https://fontawesome.com/license (Commercial License) --><defs><style>.fa-secondary{opacity:.4}</style></defs><path d="M416 63.994V256.004C416 291.25 387.25 320 352 319.875L194.25 320.018L111.5 382.139C105.125 386.887 96 382.262 96 374.264V320.018L64 320C28.75 320 0 291.25 0 256.004V63.994C0 28.748 28.75 0 64 0H352C387.25 0 416 28.748 416 63.994Z" class="fa-secondary"/><path d="M640 191.994V383.969C640 419.215 611.25 447.963 576 447.963H544V502.209C544 510.207 534.875 514.832 528.5 510.082L445.75 447.963H320C284.75 447.963 256 419.215 256 383.969V351.992H352C404.875 351.992 448 308.871 448 256V128H576C611.25 128 640 156.748 640 191.994Z" class="fa-primary"/></svg>

<svg xmlns="http://www.w3.org/2000/svg" viewBox="0 0 640 512"><!--! Font Awesome Pro 6.6.0 by @fontawesome - https://fontawesome.com License - https://fontawesome.com/license (Commercial License) Copyright 2024 Fonticons, Inc. --><defs><style>.fa-secondary{opacity:.4}</style></defs><path class="fa-secondary" d="M256 352l96 0c53 0 96-43 96-96l0-128 128 0c35.3 0 64 28.7 64 64l0 192c0 35.3-28.7 64-64 64l-32 0 0 48c0 6.1-3.4 11.6-8.8 14.3s-11.9 2.1-16.8-1.5L437.3 448 320 448c-35.3 0-64-28.7-64-64l0-32z"/><path class="fa-primary" d="M0 64C0 28.7 28.7 0 64 0L352 0c35.3 0 64 28.7 64 64l0 192c0 35.3-28.7 64-64 64l-149.3 0-81.1 60.8c-4.8 3.6-11.3 4.2-16.8 1.5s-8.8-8.2-8.8-14.3l0-48-32 0c-35.3 0-64-28.7-64-64L0 64z"/></svg>
